X:18
T:Flower of Edinburgh
M:C|
L:1/8
B:Thompson's Compleat Collection of 200 Favourite Country Dances, vol. 1 (London, 1757)
Z:Transcribed and edited by Fynnian Titford-Mock, 2007
Z:abc's:AK/Fiddler's Companion
K:G
(3GFE|D3E G3A|BGBd (cB)(AG)|F3 E DEFG|AfdF E2 FE|DEFD G3 A|
(3BAG (3Bcd e3g|dBAG E2 GA|B2 GA G2::d2|gfga g/a/b ag|fefg f/g/a gf|
edef gfed|B2e2 e3 (g/4f/4e/)|dBAG d2 cB|edef g2 (g/a/b)|cBAG E2 GA|B2G2G2:|

